src/shared/svg/sidebar/Reporting.svg

<svg width="20" height="20" viewBox="0 0 20 20" fill="none" xmlns="http://www.w3.org/2000/svg">
<g clip-path="url(#clip0_4870_104615)">
<path d="M17.2695 3.64766L14.3543 0.732031C13.8828 0.263359 13.2461 0 12.5859 0H5.5C4.11914 0 3 1.11914 3 2.5L3.00025 17.5C3.00025 18.8805 4.11939 20 5.50025 20H15.5C16.875 20 18 18.875 18 17.5V5.41406C18 4.75391 17.7383 4.11719 17.2695 3.64766ZM16.125 17.5C16.125 17.8452 15.8452 18.125 15.5 18.125H5.50078C5.15555 18.125 4.87578 17.8452 4.87578 17.5L4.875 2.50508C4.875 2.15992 5.15484 1.88008 5.5 1.88008H11.75V5C11.75 5.69023 12.3098 6.25 13 6.25H16.0898V17.5H16.125ZM10.5 10C9.98438 10 9.5625 10.4219 9.5625 10.9375V15.9375C9.5625 16.4551 9.98242 16.875 10.5 16.875C11.0176 16.875 11.4375 16.4551 11.4375 15.9375V10.9375C11.4375 10.4219 11.0195 10 10.5 10ZM13 15.9375C13 16.4551 13.4199 16.875 13.9375 16.875C14.4551 16.875 14.875 16.4551 14.875 15.9375V12.1875C14.875 11.6719 14.457 11.25 13.9375 11.25C13.418 11.25 13 11.6719 13 12.1875V15.9375ZM7.0625 12.5C6.54492 12.5 6.125 12.9199 6.125 13.4375V15.9375C6.125 16.4551 6.54492 16.875 7.0625 16.875C7.58008 16.875 8 16.457 8 15.9375V13.4375C8 12.9219 7.58203 12.5 7.0625 12.5Z" fill="#8A8DBA"/>
</g>
<defs>
<clipPath id="clip0_4870_104615">
<rect width="15" height="20" fill="white" transform="translate(3)"/>
</clipPath>
</defs>
</svg>

<svg width="20" height="20" viewBox="0 0 20 20" fill="none" xmlns="http://www.w3.org/2000/svg"><g clip-path="url(#a)"><path d="M17.27 3.648 14.354.732A2.512 2.512 0 0 0 12.586 0H5.5A2.5 2.5 0 0 0 3 2.5v15A2.5 2.5 0 0 0 5.5 20h10c1.375 0 2.5-1.125 2.5-2.5V5.414c0-.66-.262-1.297-.73-1.766ZM16.125 17.5c0 .345-.28.625-.625.625h-10a.625.625 0 0 1-.624-.625L4.875 2.505c0-.345.28-.625.625-.625h6.25V5c0 .69.56 1.25 1.25 1.25h3.09V17.5h.035ZM10.5 10a.94.94 0 0 0-.938.938v5a.938.938 0 0 0 1.876 0v-5A.938.938 0 0 0 10.5 10Zm2.5 5.938a.938.938 0 0 0 1.875 0v-3.75a.938.938 0 0 0-1.875 0v3.75ZM7.062 12.5a.938.938 0 0 0-.937.938v2.5a.938.938 0 0 0 1.875 0v-2.5a.938.938 0 0 0-.938-.938Z" fill="#8A8DBA"/></g><defs><clipPath id="a"><path fill="#fff" transform="translate(3)" d="M0 0h15v20H0z"/></clipPath></defs></svg>
